svg/nature/flower_line.svg

<?xml version="1.0" encoding="UTF-8"?>
<svg width="24px" height="24px" viewBox="0 0 24 24" version="1.1" xmlns="http://www.w3.org/2000/svg" xmlns:xlink="http://www.w3.org/1999/xlink">
    <title>flower_line</title>
    <g id="页面-1" stroke="none" stroke-width="1" fill="none" fill-rule="evenodd">
        <g id="System" transform="translate(-672.000000, -192.000000)">
            <g id="flower_line" transform="translate(672.000000, 192.000000)">
                 <path d="M24,0 L24,24 L0,24 L0,0 L24,0 Z M12.5934901,23.257841 L12.5819402,23.2595131 L12.5108777,23.2950439 L12.4918791,23.2987469 L12.4918791,23.2987469 L12.4767152,23.2950439 L12.4056548,23.2595131 C12.3958229,23.2563662 12.3870493,23.2590235 12.3821421,23.2649074 L12.3780323,23.275831 L12.360941,23.7031097 L12.3658947,23.7234994 L12.3769048,23.7357139 L12.4804777,23.8096931 L12.4953491,23.8136134 L12.4953491,23.8136134 L12.5071152,23.8096931 L12.6106902,23.7357139 L12.6232938,23.7196733 L12.6232938,23.7196733 L12.6266527,23.7031097 L12.609561,23.275831 C12.6075724,23.2657013 12.6010112,23.2592993 12.5934901,23.257841 L12.5934901,23.257841 Z M12.8583906,23.1452862 L12.8445485,23.1473072 L12.6598443,23.2396597 L12.6498822,23.2499052 L12.6498822,23.2499052 L12.6471943,23.2611114 L12.6650943,23.6906389 L12.6699349,23.7034178 L12.6699349,23.7034178 L12.678386,23.7104931 L12.8793402,23.8032389 C12.8914285,23.8068999 12.9022333,23.8029875 12.9078286,23.7952264 L12.9118235,23.7811639 L12.8776777,23.1665331 C12.8752882,23.1545897 12.8674102,23.1470016 12.8583906,23.1452862 L12.8583906,23.1452862 Z M12.1430473,23.1473072 C12.1332178,23.1423925 12.1221763,23.1452606 12.1156365,23.1525954 L12.1099173,23.1665331 L12.0757714,23.7811639 C12.0751323,23.7926639 12.0828099,23.8018602 12.0926481,23.8045676 L12.108256,23.8032389 L12.3092106,23.7104931 L12.3186497,23.7024347 L12.3186497,23.7024347 L12.3225043,23.6906389 L12.340401,23.2611114 L12.337245,23.2485176 L12.337245,23.2485176 L12.3277531,23.2396597 L12.1430473,23.1473072 Z" id="MingCute" fill-rule="nonzero"></path>
                <path d="M10.5858,2.50009 C11.3256947,1.76014789 12.5012393,1.72121255 13.286992,2.38325845 L13.4142,2.50009 L15.0405,4.12641 L15.2154812,3.88363406 L15.2154812,3.88363406 L15.5302687,3.43104469 L15.5302687,3.43104469 L15.7351118,3.123124 L15.7351118,3.123124 L15.9412699,2.79419321 C16.2491574,2.31360907 16.6177412,1.85653941 17.2669,2.03636 C17.6607182,2.14543273 17.9443711,2.48117488 17.9926896,2.87901845 L18,3.00007 L18,9.00007 C18,11.8905158 15.9561593,14.3035047 13.2348797,14.8728462 L13,14.9171 L13,18.9171 C14.9584,18.5886 16.5963,17.3113 17.423,15.571 C17.66,15.0721 18.2565,14.8598 18.7554,15.0968 C19.2543,15.3338 19.4666,15.9303 19.2296,16.4292 C18.0828,18.8432 15.7605,20.5939 13,20.9382 C13,21.5046 12.5931,22.0001 12,22.0001 C11.4069,22.0001 11,21.5046 11,20.9382 C8.23945,20.5939 5.91709,18.8432 4.77031,16.4292 C4.53333,15.9303 4.74562,15.3338 5.24448,15.0968 C5.74334,14.8598 6.33985,15.0721 6.57683,15.571 C7.36766304,17.2357304 8.90067212,18.4766635 10.7464104,18.8689119 L11,18.9171 L11,14.9171 C8.24110556,14.454225 6.12063839,12.1086687 6.00496343,9.24662135 L5.99999,9.00007 L5.99999,3.00007 C5.99999,2.55059 6.29988,2.15634 6.73306,2.03636 C7.3303,1.87092941 7.69197792,2.24842865 7.9865641,2.68504937 L8.33204,3.22662 L8.33204,3.22662 L8.46970109,3.43104484 L8.46970109,3.43104484 L8.78451078,3.88363828 L8.78451078,3.88363828 L8.95946,4.12642 L10.5858,2.50009 Z M15.99999,6.16326 C15.4877,6.80045 14.8888,7.46732 14.2652,7.98704 C13.6697,8.4833 12.872,9.00007 11.99999,9.00007 C11.128,9.00007 10.3303,8.4833 9.73481,7.98704 C9.215085,7.55394 8.71256139,7.0186525 8.26304935,6.48350968 L7.99999,6.16326 L7.99999,9.00007 C7.99999,11.2092 9.79085,13.0001 11.99999,13.0001 C14.1421573,13.0001 15.8910672,11.3160949 15.9950946,9.19970965 L15.99999,9.00007 L15.99999,6.16326 Z M12,3.91431 L10.2261,5.68825 L10.6106003,6.10832617 C11.0102542,6.53206889 11.5220133,7.00007 12,7.00007 C12.4779867,7.00007 12.989692,6.53206351 13.3893567,6.10831793 L13.7739,5.68824 L13.7739,5.68824 L12,3.91431 Z" id="形状" fill="#09244B"></path>
            </g>
        </g>
    </g>
</svg>

<svg xmlns="http://www.w3.org/2000/svg" width="24" height="24"><g fill="none" fill-rule="evenodd"><path d="M24 0v24H0V0h24ZM12.593 23.258l-.011.002-.071.035-.02.004-.014-.004-.071-.035c-.01-.004-.019-.001-.024.005l-.004.01-.017.428.005.02.01.013.104.074.015.004.012-.004.104-.074.012-.016.004-.017-.017-.427c-.002-.01-.009-.017-.017-.018Zm.265-.113-.013.002-.185.093-.01.01-.003.011.018.43.005.012.008.007.201.093c.012.004.023 0 .029-.008l.004-.014-.034-.614c-.003-.012-.01-.02-.02-.022Zm-.715.002a.023.023 0 0 0-.027.006l-.006.014-.034.614c0 .012.007.02.017.024l.015-.002.201-.093.01-.008.004-.011.017-.43-.003-.012-.01-.01-.184-.092Z"/><path fill="#09244B" d="M10.586 2.5a2 2 0 0 1 2.701-.117l.127.117 1.627 1.626.174-.242.315-.453.205-.308.206-.329c.308-.48.677-.937 1.326-.758a1 1 0 0 1 .726.843L18 3v6a6.002 6.002 0 0 1-4.765 5.873l-.235.044v4a6.008 6.008 0 0 0 4.423-3.346 1 1 0 1 1 1.807.858A8.007 8.007 0 0 1 13 20.94c0 .566-.407 1.061-1 1.061s-1-.495-1-1.062a8.007 8.007 0 0 1-6.23-4.509 1 1 0 0 1 1.807-.858 6.01 6.01 0 0 0 4.17 3.298l.253.048v-4a6.002 6.002 0 0 1-4.995-5.67L6 9V3a1 1 0 0 1 .733-.964c.597-.165.959.212 1.254.649l.345.542.138.204.315.453.174.242L10.586 2.5ZM16 6.163c-.512.637-1.111 1.304-1.735 1.824C13.67 8.483 12.872 9 12 9c-.872 0-1.67-.517-2.265-1.013-.52-.433-1.022-.968-1.472-1.503L8 6.164V9a4 4 0 0 0 7.995.2L16 9V6.163Zm-4-2.249-1.774 1.774.385.42c.4.424.911.892 1.389.892s.99-.468 1.39-.892l.384-.42L12 3.914Z"/></g></svg>
